X: 3
T: The Reverend Brother's Jig/The Monk's (J-81)
M: 6/8
L: 1/8
R: jig
K: Ador
|:"Am"ABA c2e|dcd ege|ABA c2e|"G"dcA AGE|
"Am"ABA c2e|dcd ege|a3 ged|"G"cAG "Am"A3:|
|:"Am"eaa aba|"G"gef ged|"Am"eaa aba|"G"ged cAA|
"Am"eaa aba|"G"gef g3|"Am"a3 ged|"G"cAG "Am"A3:||
%%text 

#include "RightHeader.h"
%%text Set 83, continued
%%scale .75
